X:1
T:Freundschaft Messe
T:Freundschaft Messe
T:Willem-Jan Hanegraaf
T:© wjhanegraaf 2008
T:© wjhanegraaf 2008
T:© wjhanegraaf 2008
C:Willem-Jan Hanegraaf
Z:© wjhanegraaf 2008
%%score 1 { ( 2 3 ) | 4 } 5
L:1/8
Q:1/4=63
M:3/4
K:G
V:1 treble nm="Flute" snm="Fl."
V:2 treble nm="MusicXML Part"
V:3 treble 
V:4 bass 
V:5 treble nm="Soprano" snm="Sop."
V:1
!pp! G6 | A2 B-d- B-G | A2 A-d- A-F | G4- F2 | G6 | G6 | A-F B4 | c-G B-d- B-G | A6 | B4 c-G | %10
 d2 G2 ec | B-G A-d A-F | G6 | A2- B4 | A-F- B4 | AA B4 | G2 G2 G2 | c2 B2 A2 | B2 A-F A2 | G6 | %20
 G6 | E-C D4 | G6 | EC D2 G2 | A4- AG | G6- | G6 |] %27
V:2
!pp! G6 | [FA]2 [GB]4 | [FA]6 | G4- F2 | [B,DG]6 | G6 | [FA]2 [GB]4 | [EGc]2 [DGB]4 | [DFA]6 | %9
 [GB]4 [Gc]2 | [GBd]4 [Gce]2 | B2 A4 | [B,DG]6 | [DFA]2- [DGB]4 | [DFA]2- [DGB]4 | %15
 [DFA]2- [DGB]4- | [DGB]6 | [EGc]4 [DFA]2 | [DGB]2 [DFA]4 | [B,DG]6 | G6 | E2 D4 | G6 | %23
 E2 D2 [EG]2 | [DFA]6 | [B,DG]6- | [B,DG]6 |] %27
V:3
 B,2- C2- D2 | x6 | x6 | E2- D4 | x6 | B,2- C2- D2 | x6 | x6 | x6 | x6 | x6 | G2 G2- F2 | x6 | x6 | %14
 x6 | x6 | x6 | x6 | x6 | x6 | B,2- C2- D2 | C2 A,4 | B,2- C2- D2 | C2 A,2 C2 | x6 | x6 | x6 |] %27
V:4
 G,,2-!pp! A,,2- B,,2 | D,-C, B,,2 G,,2 | D,6 | C,2- D,3- C, | G,,6 | G,,2- A,,2- B,,2 | %6
 D,-C, G,2 B,,2 | C,2 G,2 G,,2 | D,6 | G,,4 E,2 | B,,2 G,,2 C,2 | D,2 D,,4 | G,,6 | D,2- G,,4 | %14
 D,2- G,,4 | D,2- G,,4- | G,,6 | C,4 D,2 | G,,-B,, D,2 D,,2 | G,,6 | G,,2- A,,2- B,,2 | %21
 C,2 [D,F,]4 | G,,2- A,,2 B,,2 | C,2 [D,F,]2 C,2 | D,4 D,,2 | G,,6- | G,,6 |] %27
V:5
 z6!mp! | z6 | z6 | z6 | z6 | G6 | A2 B4 | c2 B4 | A6 | B4 c2 | d4 ec | B2- A4 | G6 | A2- B4 | %14
w: |||||Ky|ri e|E ly|son|Ky ri|e e _|le i|son|Chri ste|
 A2- B4 | A2- B4 | B2- d2 B2 | c3 B- A2 | B2 A4 | G6 | G6 | E2 D4 | G6 | E2 D2 G2 | A4- AG | G6- | %26
w: Chri ste|Chri ste|e le _|I _ _|e ly|son|Ky|ri e|Ky|ri e e|Le _ I|son|
 G6 |] %27
w: _|

